X: 20951
T: TINK A TINK
Q: "Allegretto"
%R: march, reel
B: "Edinburgh Repository of Music" v.2 p.95 #1
F: http://digital.nls.uk/special-collections-of-printed-music/pageturner.cfm?id=87776133
Z: 2015 John Chambers <jc:trillian.mit.edu>
M: 2/4
L: 1/8
K: D
|:\
d2af | d2af | g>agf | edce |\
d2af | d2af | gecA | d2z2 :|\
a2d'c' | bagf | efga | f2d2 |\
a2d'c' | bagf | efge | d2z2 |]

%%sep 2 1 500
%%sep 1 1 500

